X:5070
T:The Man From Freecrow
M:6/8
R:Jig
L:1/8
Q:180
C:Aidan Crossey
K:G
|:G2A|BAB GED|EGG G2A|BAB GAB|cBc ABc|
BAB GED|EGG G2A|BAB cAF|G3:||
|:G2A|BAB cBc|dBd e2d|BdB BAG|ABA BAG|
BAB cBc|dBd e2d|BdB ABA|G3:||
